lib/brands/logos/git.svg

<svg xmlns="http://www.w3.org/2000/svg" fill="none" aria-hidden="true" viewBox="0 0 173 78"><g id="Git"><g id="Group"><g id="Union"><path fill="#2F2707" d="M132.555 16.2624C128.82 16.2624 126.66 14.0994 126.66 10.3642C126.66 6.63426 128.82 4.6022 132.555 4.6022C136.354 4.6022 138.515 6.63426 138.515 10.3642C138.515 14.0994 136.354 16.2624 132.555 16.2624Z"/><path fill="#2F2707" d="M124.104 55.6248V50.4529L127.445 49.996C128.363 49.8636 128.493 49.6679 128.493 48.6835V29.4264C128.493 28.7076 128.297 28.247 127.64 28.0521L124.104 26.8065L124.824 21.5029H138.384V48.6835C138.384 49.7334 138.447 49.8636 139.432 49.996L142.773 50.4529V55.6248H124.104Z"/><path fill="#2F2707" fill-rule="evenodd" d="M115.005 28.165C116.182 29.6717 117.428 31.7685 117.428 34.7812C117.428 42.0514 111.729 46.3082 103.478 46.3082C101.38 46.3082 99.4805 46.047 98.3026 45.7197L96.1404 49.1907L102.559 49.5828L102.932 49.6066C114.038 50.3136 120.57 50.7294 120.57 59.3412C120.57 66.8756 113.956 71.1309 102.559 71.1309C90.7035 71.1309 86.1841 68.1182 86.1841 62.9439C86.1841 59.996 87.4944 58.4275 89.7868 56.2622C87.6246 55.3486 86.9051 53.7116 86.9051 51.9422C86.9051 50.5002 87.6246 49.1907 88.8054 47.9451C89.984 46.7026 91.2936 45.4562 92.8658 44.0157C89.6566 42.4435 87.2325 39.0372 87.2325 34.1896C87.2325 26.6582 92.211 21.4855 102.231 21.4855C105.048 21.4855 106.751 21.7444 108.258 22.1403H121.032V27.7059L115.005 28.165ZM102.821 27.967C99.2178 27.967 96.534 29.7364 96.534 33.9947C96.534 37.2031 98.3026 39.4308 102.627 39.4308C106.292 39.4308 108.782 37.2708 108.782 33.8622C108.782 29.9991 106.554 27.967 102.821 27.967ZM95.6166 58.0354C94.7639 59.0815 93.9142 60.1939 93.9142 61.5057C93.9142 64.124 97.2527 64.912 101.839 64.912C105.638 64.912 110.813 64.6456 110.813 61.1136C110.813 59.0398 108.385 58.8879 105.294 58.6945L105.178 58.6872L95.6166 58.0354Z" clip-rule="evenodd"/><path fill="#2F2707" d="M157.996 55.7046C161.731 55.7046 165.857 54.4598 168.675 53.0855L166.905 47.3205C165.333 47.9098 163.435 48.3674 161.599 48.3674C158.064 48.3674 157.146 46.8622 157.146 42.9975V27.3439H166.905V20.7947H157.67C157.146 20.7947 157.146 20.5967 157.146 20.1399V10.8361H150.922C150.202 17.9754 147.911 20.8579 142.145 21.5142V27.3439H146.729C147.256 27.3439 147.256 27.6066 147.256 27.9987V45.159C147.256 52.5639 150.202 55.7046 157.996 55.7046Z"/></g><path id="Vector" fill="#DE4C36" d="M71.6241 35.8964L41.6754 5.94999C39.9519 4.225 37.1545 4.225 35.4287 5.94999L29.2099 12.1688L37.0988 20.0577C38.9321 19.4383 41.0342 19.8537 42.4958 21.3153C43.9641 22.7859 44.3765 24.906 43.7421 26.7454L51.345 34.3483C53.1844 33.7146 55.3067 34.1248 56.7758 35.5961C58.8289 37.6485 58.8289 40.9751 56.7758 43.0289C54.7219 45.0828 51.3954 45.0828 49.3408 43.0289C47.7964 41.4831 47.4148 39.2147 48.1968 37.3121L41.1064 30.2217L41.1057 48.8805C41.6062 49.1289 42.0788 49.4593 42.4958 49.8747C44.5489 51.9271 44.5489 55.2536 42.4958 57.309C40.4419 59.3621 37.1138 59.3621 35.063 57.309C33.0098 55.2536 33.0098 51.9271 35.063 49.8747C35.5702 49.3682 36.1573 48.9851 36.7834 48.7277V29.8951C36.1573 29.6392 35.571 29.2584 35.063 28.7481C33.5073 27.1947 33.1333 24.9121 33.9303 23.0019L26.1543 15.2244L5.61926 35.758C3.89352 37.4844 3.89352 40.2819 5.61926 42.0069L35.568 71.9541C37.2922 73.6791 40.0889 73.6791 41.8154 71.9541L71.6241 42.1461C73.3491 40.4204 73.3491 37.6214 71.6241 35.8964Z"/></g></g></svg>

<svg xmlns="http://www.w3.org/2000/svg" fill="none" aria-hidden="true" viewBox="0 0 173 78"><g fill="#2F2707"><path d="M132.555 16.262c-3.735 0-5.895-2.163-5.895-5.898 0-3.73 2.16-5.762 5.895-5.762 3.799 0 5.96 2.032 5.96 5.762 0 3.735-2.161 5.898-5.96 5.898Zm-8.451 39.363v-5.172l3.341-.457c.918-.132 1.048-.328 1.048-1.313V29.427c0-.718-.196-1.179-.853-1.374l-3.536-1.245.72-5.304h13.56v27.18c0 1.05.063 1.18 1.048 1.313l3.341.457v5.172h-18.669Z"/><path fill-rule="evenodd" d="M115.005 28.165c1.177 1.507 2.423 3.604 2.423 6.616 0 7.27-5.699 11.527-13.95 11.527-2.098 0-3.997-.261-5.175-.588l-2.163 3.47 6.419.393.373.024c11.106.707 17.638 1.122 17.638 9.734 0 7.535-6.614 11.79-18.011 11.79-11.855 0-16.375-3.013-16.375-8.187 0-2.948 1.31-4.517 3.603-6.682-2.162-.913-2.882-2.55-2.882-4.32 0-1.442.72-2.751 1.9-3.997 1.179-1.242 2.489-2.489 4.06-3.93-3.208-1.572-5.632-4.978-5.632-9.825 0-7.532 4.978-12.704 14.998-12.704 2.817 0 4.52.258 6.027.654h12.774v5.566l-6.027.459Zm-12.184-.198c-3.603 0-6.287 1.77-6.287 6.028 0 3.208 1.769 5.436 6.093 5.436 3.665 0 6.155-2.16 6.155-5.569 0-3.863-2.228-5.895-5.961-5.895Zm-7.204 30.068c-.853 1.047-1.703 2.159-1.703 3.47 0 2.619 3.339 3.407 7.925 3.407 3.799 0 8.974-.266 8.974-3.798 0-2.074-2.428-2.226-5.519-2.42l-.116-.007-9.561-.652Z" clip-rule="evenodd"/><path d="M157.996 55.705c3.735 0 7.861-1.245 10.679-2.62l-1.77-5.764c-1.572.589-3.47 1.046-5.306 1.046-3.535 0-4.453-1.505-4.453-5.37V27.345h9.759v-6.55h-9.235c-.524 0-.524-.197-.524-.654v-9.304h-6.224c-.72 7.14-3.011 10.022-8.777 10.678v5.83h4.584c.527 0 .527.263.527.655v17.16c0 7.405 2.946 10.546 10.74 10.546Z"/></g><path fill="#DE4C36" d="M71.624 35.896 41.675 5.95a4.417 4.417 0 0 0-6.246 0l-6.22 6.219 7.89 7.889a5.244 5.244 0 0 1 6.643 6.687l7.603 7.603a5.248 5.248 0 0 1 5.43 1.248 5.255 5.255 0 0 1 0 7.433 5.256 5.256 0 0 1-8.578-5.717l-7.09-7.09-.001 18.658a5.257 5.257 0 1 1-4.322-.153V29.896a5.255 5.255 0 0 1-2.853-6.893l-7.777-7.778L5.62 35.758a4.418 4.418 0 0 0 0 6.249l29.949 29.947a4.418 4.418 0 0 0 6.247 0l29.81-29.808a4.42 4.42 0 0 0 0-6.25Z"/></svg>
